X: 1193
T: DEAREST LASSIE
B: Oliver Ditson "The Boston Collection of Instrumental Music" 1910 p.119 #3
F: http://conquest.imslp.info/files/imglnks/usimg/8/8f/IMSLP175643-PMLP309456-bostoncollection00bost_bw.pdf
%: 2012 John Chambers <jc:trillian.mit.edu>
M: 6/8
L: 1/8
K: A
A |\
EEE A2A | BAB c3 | E2E F2E | E2E E2A |\
EEE A2A | BAB cAF | E2E F2E | E2E EA H|]
c/d/ |\
efe edc | BAB c3 | E2E F2E | E2E EA c/d/ |\
efe edc | BAB c3 | E2E F2E | E2E "^da Capo"EA |]
%%begintext align
First two forward and back, swing between side couples.
Forward six, swing to place with partners.
Balance four.
Next two, &c.
%%endtext

%%sep 1 1 500
%%sep 1 1 500
